X:1
T:Ej tedaj
T:dr. Benjamin Ipavec
T:Utva
T:Copyright © PriMož HladniK
T:Ej tedaj
T:Copyright © PriMož HladniK
T:Copyright © PriMož HladniK
C:dr. Benjamin Ipavec
Z:Utva
Z:Copyright © PriMož HladniK
%%score [ ( 1 2 ) ( 3 4 ) ]
L:1/8
Q:1/4=100
M:4/8
K:A
V:1 treble nm="P1"
V:2 treble 
V:3 bass nm="P2"
V:4 bass 
V:1
!mf! c (c/d/)BB | A (A/B/)^GG | A2 e2 | d (d/c/)B z | c (c/d/)BB | A (A/B/)GG |!<(! E2!<)! A2 | %7
w: |||||||
w: |||||||
!>(! B (B/c/)!>)!A z |!p! AA/B/GG | FF/G/^EE | F2!>)!!>(! (FG) | G3 z | ^EE/G/FF | %13
w: ||||||
w: ||||||
 GG/B/!>(!A!>)!A |!pp! F2 B2 | !fermata!B2!mf! e>e |[M:3/4] !fermata!e6 | %17
w: ||||
w: ||||
!f!"^Allegro"[Q:1/4=120] c>e e3 c | ed dB Gd | c4 ee | B2 e2 d2 | c>e e3 c | ed dB Gd | c4 e2 | %24
w: |||||||
w: |||||||
 B4 z2 |!p!!<(! AA eA!<)! eA | (Ae) d2 (Fd) | c4 B2 | e4 z2 |!f! =AA eA fc | (ed) d2 F!>(!d!>)! | %31
w: |||||||
w: |da mi pra- vi o lju-|be- * zni, o _|lep- ših|dneh,|da pri- va- bi na u-|stni * * * *|
 c4 (cB) | !fermata!A4 z2 |] %33
w: ||
w: ||
V:2
 E (E/F/)DD | C (C/D/)DD | C2 E2 | G (G/A/)G x | E (E/F/) DD | C (C/D/) DD | C2 C2 | D (D/E/)C x | %8
w: Na pla- * ta- ni|slav- ček _ pla- ka,|pla- ka|v\_ti- hi _ mrak|na gre- * di- cah|no- či _ ča- ka|ko- pr-|ne- či _ mak.|
 CCCC | DDCC | C2 ^B,2 | C3 x | CCCC | D=EEE | E^DCD | E2 z2 |[M:3/4] G>G !fermata!G4 | A>c c3 A | %18
w: Ko pa vtih- ne|bol- ni sla- vec|in za-|spi,|in ko mak se|v\_noč- no te- mo|po- * to- *|pi:|ej, te- daj,|ej, te- daj pa|
 cB BG EB | A4 cc | G2 c2 B2 | A>c c3 A | cB BG EB | A4 E2 | E4 x2 | C4 =G2 | F2 F2 (FF) | E4 G2 | %28
w: fan- tič pri- de k\_me- ni|v\_vas k\_me- ni|v\_vas, fan- tič|da po- ljub- bi|mi o- če- si, us- tni|in o-|braz;|da mi|pra- vi o _|lep- ših|
 A4 x2 | G4 G2 | (=GF) F2 DF | (E2 A2) ^G2 | E4 z2 |] %33
w: dneh,|da na|us- * tni spet brez-|skr- * ben|smeh.|
V:3
!mf! A,E, G,E, | A,E, B,E, | (E,C) (B,A,) | B, B,/C/D z | A,E,G,E, | A,E,B,E, | %6
!<(! A,2 (A,!<)!G,) |!>(! F,G,!>)!A, z |!p! A,F,G,G, | A,A,G,G, | (F,A,)!>)!!>(! (G,F,) | ^E,3 z | %12
 G,B,A,A, | B,B,!>(!A,!>)!!pp!A, | A,2 A,2 | G,2 z2 |[M:3/4] D>D D4 | z2!f! A,>A, A,2 | E4 E2 | %19
 CC CA, E,C | B,4 z2 | A,7/2 A,/ A,A, | E4 E2 | EC CA, E,C | B,2 z2 z2 |!p!!<(! =G,4!<)! A,2 | %26
 A,2 A,2 B,2 | A,4 E2 | E4 z2 |!f! C4 (CA,) | A,2 A,2 B,!>(!B,!>)! | (A,2 E2) D2 | C4 z2 |] %33
V:4
 A,,2 A,,2 | A,,2 A,,2 | (A,,E,) (D,C,) | E,E,E, x | A,,2 A,,2 | A,,2 A,,2 | (A,,A,) (F,E,) | %7
w: |||||||
 D,E,A,, x | F,F,E,E, | D,B,,C, (B,,/C,/) | A,,2 D,2 | C,3 x | B,,G,A,F, | E,D,C,C, | B,,2 B,,2 | %15
w: ||||||||
 !fermata!E,2 x2 |[M:3/4] E,>E, !fermata!E,4 | x2 A,,>A, A,2 | C,4 (C,E,) | A,A, A,E, C,A, | %20
w: ||ej, te- daj|fan- tič, _|fan- tič pri- de \_me- ni|
 G,4 z2 | A,,7/2 A,/ A,A, | E,4 (E,G,) | A,A, A,E, C,A, | G,2 E,2 E,2 | A,,4 (B,,C,) | %26
w: v\_vas,|da po- lju- bi|mi o- *|če- si, us- tni in o-|braz, da mi||
 D,2 D,2 D,2 | (E,2 E2) D2 | C4 x2 | (A,2 A,,2) (A,,E,) | D,2 D,2 D,B,, | E,4 E,2 | %32
w: ||||||
 !fermata!A,4 z2 |] %33
w: |

